src/lib/packages/icons/src/assets/line/heart-tag.svg

<svg width="24" height="24" viewBox="0 0 24 24" fill="none" xmlns="http://www.w3.org/2000/svg">
<path d="M12 22.75C11.231 22.75 10.527 22.397 10.066 21.783L8.56702 19.783C8.39402 19.554 8.12001 19.417 7.83301 19.417H6.33301C3.70001 19.417 2.25 17.967 2.25 15.334V5.33398C2.25 2.70098 3.70001 1.25098 6.33301 1.25098H17.667C20.3 1.25098 21.75 2.70098 21.75 5.33398V15.334C21.75 17.967 20.3 19.417 17.667 19.417H16.167C15.88 19.417 15.605 19.554 15.433 19.784L13.933 21.783C13.473 22.397 12.769 22.75 12 22.75ZM6.33301 2.75C4.52201 2.75 3.75 3.52201 3.75 5.33301V15.333C3.75 17.144 4.52201 17.916 6.33301 17.916H7.83301C8.58901 17.916 9.31197 18.277 9.76697 18.882L11.267 20.883C11.617 21.349 12.385 21.349 12.733 20.883L14.234 18.883C14.689 18.278 15.412 17.916 16.168 17.916H17.668C19.479 17.916 20.251 17.143 20.251 15.333V5.33301C20.251 3.52201 19.479 2.75 17.668 2.75H6.33301ZM12.011 16.25C11.905 16.25 11.799 16.228 11.7 16.183C11.52 16.101 7.286 14.137 6.599 10.596C6.323 9.17101 6.59695 7.82602 7.35095 6.90802C7.96795 6.15602 8.84902 5.75598 9.90002 5.75098C9.90602 5.75098 9.91102 5.75098 9.91602 5.75098C10.897 5.75098 11.57 6.19603 12.011 6.67603C12.451 6.19603 13.124 5.75098 14.106 5.75098C14.111 5.75098 14.1159 5.75098 14.1219 5.75098C15.1739 5.75598 16.057 6.15602 16.673 6.90802C17.427 7.82602 17.7 9.17101 17.423 10.596C16.736 14.137 12.502 16.101 12.322 16.183C12.223 16.228 12.117 16.25 12.011 16.25ZM9.91504 7.25C9.91204 7.25 9.90996 7.25 9.90796 7.25C9.30896 7.253 8.83999 7.45797 8.51099 7.85797C8.04799 8.42197 7.884 9.33802 8.073 10.309C8.52 12.616 11.106 14.178 12.011 14.659C12.914 14.175 15.505 12.606 15.95 10.309C16.138 9.33802 15.9749 8.42197 15.5129 7.85797C15.1839 7.45697 14.713 7.253 14.114 7.25C14.112 7.25 14.1091 7.25 14.1071 7.25C13.1111 7.25 12.7369 8.28101 12.7209 8.32501C12.6149 8.62701 12.354 8.83698 12.006 8.82898C11.685 8.82598 11.401 8.62297 11.299 8.31897C11.285 8.28097 10.911 7.25 9.91504 7.25Z" fill="currentColor"/>
</svg>

<svg xmlns="http://www.w3.org/2000/svg" width="24" height="24" fill="none"><path fill="currentColor" d="M12 22.75a2.398 2.398 0 0 1-1.934-.967l-1.499-2a.925.925 0 0 0-.734-.366h-1.5c-2.633 0-4.083-1.45-4.083-4.083v-10c0-2.633 1.45-4.083 4.083-4.083h11.334c2.633 0 4.083 1.45 4.083 4.083v10c0 2.633-1.45 4.083-4.083 4.083h-1.5a.921.921 0 0 0-.734.367l-1.5 1.999A2.394 2.394 0 0 1 12 22.75Zm-5.667-20c-1.811 0-2.583.772-2.583 2.583v10c0 1.811.772 2.583 2.583 2.583h1.5c.756 0 1.479.361 1.934.966l1.5 2.001c.35.466 1.118.466 1.466 0l1.501-2a2.433 2.433 0 0 1 1.934-.967h1.5c1.811 0 2.583-.773 2.583-2.583v-10c0-1.811-.772-2.583-2.583-2.583H6.333Zm5.678 13.5a.75.75 0 0 1-.311-.067c-.18-.082-4.414-2.046-5.101-5.587-.276-1.425-.002-2.77.752-3.688.617-.752 1.498-1.152 2.549-1.157h.016a2.76 2.76 0 0 1 2.095.925 2.757 2.757 0 0 1 2.095-.925h.016c1.052.005 1.935.405 2.551 1.157.754.918 1.027 2.263.75 3.688-.687 3.541-4.921 5.505-5.101 5.587a.75.75 0 0 1-.311.067Zm-2.096-9h-.007c-.599.003-1.068.208-1.397.608-.463.564-.627 1.48-.438 2.451.447 2.307 3.033 3.869 3.938 4.35.903-.484 3.494-2.053 3.939-4.35.188-.971.025-1.887-.437-2.451-.33-.401-.8-.605-1.399-.608h-.007c-.996 0-1.37 1.031-1.386 1.075a.723.723 0 0 1-.715.504.75.75 0 0 1-.707-.51c-.014-.038-.388-1.069-1.384-1.069Z"/></svg>
